X:1
T:Title
%%score { ( 1 3 ) | ( 2 4 ) }
L:1/8
M:4/4
K:F
V:1 treble nm="Grand Piano"
V:3 treble 
V:2 bass 
V:4 bass 
V:1
 z4 z2[Q:1/4=94] [Fd]>[_Ec] | [DB]>[DF] [DF]>[DF] [DF]>[DF] [^CE]>[DF] | G>G G>G [Ec]2 [GB]>[GB] | %3
 A>A _e>e G>G A>G | F2 d2 d2 [Fd]>[_Ec] | [DB]>[DF] [DF]>[DF] [DF]>[DF] [^CE]>[DF] | %6
 G>G G>G [Ec]2 [GB]>[GB] | A>A _e>e G>G A>F |[M:3/4] [B,DB]6 |[M:1/4] d>^c |[M:4/4] d6 z2 | F6 z2 | %12
 B>A A>_e e2 G>A | [_EG]>[DF] [DF]>[DB] [Fd]2 d>^c | d6 z2 | F6 z2 | B>A A>_e e>G A>F | %17
[M:3/4] [DB]6 |] %18
V:2
 z4 z2 [B,,B,]>[B,,B,] | [B,,B,]>[B,,B,] [B,,B,]>[B,,B,] [B,,B,]>[B,,B,] [B,,B,]>[B,,B,] | %2
 [_E,B,_E]>[E,B,E] [E,B,E]>[E,B,E] [C,B,]2 [C,C]>[C,C] | %3
 [F,CF]>[F,CF] [F,CF]>[F,CF] [F,C_E]>[F,CE] [F,CF]>[F,A,E] | %4
 [B,D]2 [B,F]2 [B,F]2[K:bass] [B,,B,]>[B,,B,] | %5
 [B,,B,]>[B,,B,] [B,,B,]>[B,,B,] [B,,B,]>[B,,B,] [B,,B,]>[B,,B,] | %6
 [_E,B,_E]>[E,B,E] [E,B,E]>[E,B,E] [C,B,]2 [C,C]>[C,C] | %7
 [F,CF]>[F,CF] [F,CF]>[F,CF] [F,C_E]>[F,CE] [F,CE]>[F,A,E] |[M:3/4] B,,6 |[M:1/4][K:treble] F>E | %10
[M:4/4] F6[K:bass] z2 | D6 z2 | [F,C_E]>[F,CE] [F,CE]>[F,CF] [F,CF]2 [F,A,E]>[F,A,F] | %13
 [B,,B,]>[B,,B,] [B,,B,]>[B,,B,] [B,,B,]2[K:treble] F>E | F6[K:bass] z2 | D6 z2 | %16
 [F,C_E]>[F,CE] [F,CE]>[F,CF] [F,CF]>[F,CE] [F,CE]>[F,A,E] |[M:3/4] [B,,B,]6 |] %18
V:3
 x8 | x8 | x8 | x8 | x8 | x8 | x8 | x8 |[M:3/4] x6 |[M:1/4] x2 |[M:4/4] z2 B,>B, B,2 F>E | %11
 z2 B,>B, B,2 [DB]>[Dc] | x8 | x8 | z2 B,>B, B,2 F>E | z2 B,>B, B,2 [DB]>[Dc] | x8 |[M:3/4] x6 |] %18
V:4
 x8 | x8 | x8 | x8 | x6[K:bass] x2 | x8 | x8 | x8 |[M:3/4] x6 |[M:1/4][K:treble] x2 | %10
[M:4/4] z2[K:bass] B,,>B,, B,,2 D>^C | z2 B,,>B,, B,,2 [B,,B,]>[B,,B,] | x8 | x6[K:treble] x2 | %14
 z2[K:bass] B,,>B,, B,,2 D>^C | z2 B,,>B,, B,,2 [B,,B,]>[B,,B,] | x8 |[M:3/4] x6 |] %18

